X:1
T:James Gibb editions
T:Si quaeris miracula - Terrabugio
T:#
%%score { 1 | 2 } 3
L:1/8
Q:1/4=92
M:4/4
K:G
V:1 treble nm="Soprano I" snm="S"
V:2 treble 
V:3 treble nm="Alto" snm="A"
V:1
"^Si quaeris miracula, op.81/2""^Giuseppe Terrabugio\n (1842-1933)""^con vita"!f!"^For the feast of\nSt. Antony of Padua" B2 | %1
w: Si|
 ^c4 ^d2 d2 | e3 B"^," B2 B2 | ^c4 ^d2 d2 | e3 e =d2 z2 | z2 e3 ef^g |[M:4/4] a2 (g=f) e2 z2 | %7
w: quae- ris mi-|ra- cu- la mors,|er- ror, ca-|la- mi- tas,|dae- mon le- pra|fu- gi\- * unt,|
 z2 (B2 ^c)c^dd | (e3 d c4) | B6 z2 |:"^mosso"!ff![Q:1/4=102] B2 B2 ^c2 ^d2 | e3 B B2 z2 | %12
w: ae\- * gri sur- gunt|sa\- * *|ni:|Ce- dunt ma- re,|vin- cu- la,|
[Q:1/4=102][Q:1/4=102] ^c2 c2 ^d2 d2 | e3 e =d2 z2 | z2 e3 ef^g | a2 (=g=f) e2 (c2- | %16
w: mem- bra, res- que|per- di- tas|pe- tunt et ac-|ci- pi\- * unt ju\-|
 c e2) d"^," c2 BA | %17
w: * * ve- nes et *|
[Q:1/4=100] (B2"^rall. assai"[Q:1/4=98] c[Q:1/4=97]d[Q:1/4=96] e[Q:1/4=94] g2[Q:1/4=92] f) | %18
w: ca\- * * * * *|
[Q:1/4=92] !fermata!e4 z4 ||1!p!"^meno" e2 e2 e2 e2 || (g4 =f2) (c>d) | e2 z2 (ec) (de) | %22
w: ni.|Pe- re- unt pe-|ri\- * cu\- *|la, ces\- * sat *|
 d2 c2 d2 d2 | e6 z2 |[Q:1/4=92][Q:1/4=92] e3 e d2 c2 | B2 A2 d4 | d2 c"^corta" !fermata!z =f2 c2 | %27
w: et ne- ces- si-|tas,|nar- rent hi qui|sen- ti- unt|di- cant Pa- du-|
 d4 !fermata!e4 :|2!pp! e4 e2 e2 || (g4 =f2 c>d) | e2 z2 (ecde) | (d2 c2) d4 | e6 z2 | (e4 d2) c2 | %34
w: a- ni.|Glo- ri- a|Pa\- * * *|tri, et * * *|Fi\- * li-|o,|et * Spi-|
 (B2 A2) d4 | (d2 c2) (=f2 c2 | d4) !fermata!e4 ||"^mosso"!ff![Q:1/4=102] B2 B2 ^c2 ^d2 | %38
w: ri\- * tu-|i * San\- *|* cto:|Ce- dunt ma- re,|
 e3 B B2 z2 | ^c2 c2 ^d2 d2 | e3 e =d2 z2 | z2 e3 ef^g | a2 (=g=f) e2 (c2- | c e2) d c2 (BA) | %44
w: vin- cu- la,|mem- bra, res- que|per- di- tas|pe- tunt et ac-|ci- pi\- * unt ju\-|* * ve- nes et *|
[Q:1/4=100] (B2"^rall. assai"[Q:1/4=98] c[Q:1/4=97]d[Q:1/4=96] e[Q:1/4=94] g2[Q:1/4=92] f) | %45
w: ca\- * * * * *|
[Q:1/4=92] e4 z4 ||3 (=f4 d4 | B8) || !fermata!B8 |] %49
w: ni.|A\- *||men.|
V:2
!f! B2 | A4 F2 B2 | G3 A"^," B2 B2 | B2 (A3 G) F2 | E2 F2"^," G2 (B2 | c4 d)cBd | %6
w: Si|quae- ris mi-|ra- cu- la mors,|er- ror, * ca-|la- mi- tas, dae\-|* * mon le- pra|
[M:4/4] c2 B2"^," c2 (A2 | B4- B)AFA | (G c2 B A4) | ^G6 z2 |:!ff! B2 B2 B2 B2 | B3 ^G G2 B2- | %12
w: fu- gi- unt, ae\-|* * gri sur- gunt|sa\- * * *|ni:|Ce- dunt ma- re,|vin- cu- la, mem\-|
 B2 A2 (A^G) F2 | E2 F2 =G2 (B2 | c4 d)cBd | c2 B2 c2 A2- | A c2 B"^," A2 (GF) | (E G2 F G B2 A) | %18
w: * bra, res\- * que|per- di- tas pe\-|* * tunt et ac-|ci- pi- unt ju\-|* * ve- nes et *|ca\- * * * * *|
 !fermata!G4 z4 ||1!p! G2 G2 G2 G2 || (G2 cB AG) =F2 | (E>=F G2) G2 G2 | G2 c2 c2 B2 | G6 z2 | %24
w: ni.|Pe- re- unt pe-|ri\- * * * * cu-|la, * * ces- sat|et ne- ces- si-|tas,|
 G3 G =F2 E2 | (D d2) c (B2 A2) | ^G2 A !fermata!z B3 A | (A2 BA) !fermata!^G4 :|2!pp! =G4 G2 G2 || %29
w: nar- rent hi qui|sen\- * ti- unt *|di- cant Pa- du-|a\- * * ni.|Glo- ri- a|
 (G2 cB AG =F2) | (E=F"^," G2) G4 | (G2 c4) B2 | G6 z2 | (G4 =F2) E2 | (D d2 c) (B2 A2) | %35
w: Pa\- * * * * *|tri, * * et|Fi\- * li-|o,|et * Spi-|ri\- * * tu\- *|
 ^G2 A2 B3 A | A2 BA !fermata!^G4 ||!ff! B2 B2 B2 B2 | B3 ^G G2 B2- | B2 A2 (A^G) F2 | %40
w: i * San\- *|* * * cto:|Ce- dunt ma- re,|vin- cu- la, mem\-|* bra, res\- * que|
 E2 F2 =G2 (B2 | c4 d)cBd | c2 B2 c2 A2- | A c2 B A2 (GF) | (E G2 F G B2 A) | G4 z4 ||3 A8- | %47
w: per- di- tas pe\-|* * tunt et ac-|ci- pi- unt ju\-|* * ve- nes et *|ca\- * * * * *|ni.|A\-|
 A4 ^G2 !courtesy!^F2 || !fermata!^G8 |] %49
w: |men.|
V:3
!f! B2 | F4 B,2 B,2 | E2 F2"^," G2 B2 | E4 B,2 B,2 | C3 C"^," B,2 B2- | B2 A2 ^G2 E2 | %6
w: Si|quae- ris mi-|ra- cu- la mors,|er- ror, ca-|la- mi- tas, dae\-|* mon le- pra|
[M:4/4] =F2 D2"^," A2 A2- | A2 G2 F2 B,2 | E8 | E6 z2 |:!ff! B2 B2 ^A2 =A2 | ^G3 E E2 (B2 | %12
w: fu- gi- unt, ae\-|* gri sur- gunt|sa-|ni:|Ce- dunt ma- re,|vin- cu- la, mem\-|
 E2 E2 B,2 B,2 | C3 C B,2 B2- | B2 A2 ^G2 E2 | =F2 D2 A2 (A2- | A c2) B"^," A2 A,2 | %17
w: * bra, res- que|per- di- tas pe\-|* tunt et ac-|ci- pi- unt ju\-|* * ve- nes et|
 G,2 A,2 B,A, B,2) | !fermata!E4 z4 ||1!p! C2 C2 C2 C2 ||!<(! (E4 =F2) A2!<)! | c2 C4 C2 | %22
w: ca\- * * * *|ni.|Pe- re- unt pe-|ri\- * cu-|la, ces- sat|
 B,2 E2 =F2 G2 | C6 z2 | C3 C G2 C2 | D2 D2 D4 | E2 A, !fermata!z D2 E2 | =F4 !fermata!E4 :|2 %28
w: et ne- ces- si-|tas,|nar- rent hi qui|sen- ti- unt|di- cant Pa- du-|a- ni.|
!pp! C4 C2 C2 || (E4 =F2 A2) |"^," c2 C6 | (B,2 E2 =F2) G2 | C6 z2 | (C4 G2) C2 | D4 D4 | %35
w: Glo- ri- a|Pa\- * *|tri, et|Fi\- * * li-|o,|et * Spi-|ri- tu-|
 E2 (A,2 D2 E2 | =F4) !fermata!E4 ||!ff! B2 B2 ^A2 =A2 | ^G3 E E2 (B2 | E2) E2 B,2 B,2 | %40
w: i San\- * *|* cto:|Ce- dunt ma- re,|vin- cu- la, mem\-|* bra, res- que|
 C3 C B,2 B2- | B2 A2 ^G2 E2 | =F2 D2 A2 (A2- | A c2) B A2 A,2 | (G,2 A,2 B,A, B,2) | E4 z4 ||3 %46
w: per- di- tas pe\-|* tunt et ac-|ci- pi- unt ju\-|* * ve- nes et|ca\- * * * *|ni.|
 (D4 =F4 | E8) || !fermata!E8 |] %49
w: A\- *||men.|

